X: 1
T: Meirionethshire Retreat March, The
M: 6/8
L: 1/8
R: jig
K: Gmaj
|: B/A/ | 
G>BG Adc | Bge dgB | c>ec BGB | AA/A/A A2 B/A/ |
GBG Ad>c | Bge dB/c/d | ece f>df | gGG G2 :|
|: B/c/ | 
d2 B dgd | e2 c ege | dd/d/c BGB | cA^G A2 B/A/ |
G2 B A>dc | Bge dB>d | e2 e fd/e/f | gG/G/G G2 :|
